advanced/dapps/react-dapp-v2/public/assets/eip155:324.svg

<svg fill="none" height="512" viewBox="0 0 512 512" width="512" xmlns="http://www.w3.org/2000/svg"><path d="m0 64c0-35.3462 28.6538-64 64-64h384c35.346 0 64 28.6538 64 64v384c0 35.346-28.654 64-64 64h-384c-35.3462 0-64-28.654-64-64z" fill="#f2f2f2"/><g fill="#000"><path d="m160 128-128 128 128 128v-96l128-96h-128z"/><path d="m480 256-128-128v96l-128 96h128v64z"/></g></svg>

<svg width="512" height="512" viewBox="0 0 512 512" fill="none" xmlns="http://www.w3.org/2000/svg">
<path d="M0 64C0 28.6538 28.6538 0 64 0H448C483.346 0 512 28.6538 512 64V448C512 483.346 483.346 512 448 512H64C28.6538 512 0 483.346 0 448V64Z" fill="#F2F2F2"/>
<path d="M160 128L32 256L160 384V288L288 192H160V128Z" fill="black"/>
<path d="M480 256L352 128V224L224 320H352V384L480 256Z" fill="black"/>
</svg>
